**kern	**dynam
*clefG2	*
*k[b-e-]	*
*B-:	*
*M3/4	*
=1	=1
2b-	f
4bb-	.
=2	=2
(>8cccL	.
8aaJ)	.
(>8aaL	.
8ggJ)	.
(>8aaL	.
8ffJ)	.
=3	=3
(>2ff	.
4ff#X)	.
=4	=4
4aa	.
4r	.
(>12bb-L	.
12gg	.
12ee-J)	.
=5	=5
4dd	.
4r	.
(>12ee-L	.
12cc	.
12aJ)	.
=6	=6
4b-	.
4r	.
(>12ddL	.
12b-	.
12gJ)	.
=7	=7
2f	.
4e-T	.
=8	=8
4d	.
4b-	.
(>12ddL	.
12b-)	.
12gJ	.
=9	=9
2f	.
4e-T	.
=10	=10
4d	.
4r	.
4r	.
=11:|!|:	=11:|!|:
!!linebreak:original
2cc	.
4ff	.
=12	=12
8ffL	.
8ee-J	.
(>8ggL	.
8ffJ)	.
(>8aaL	.
8ggJ)	.
=13	=13
2cc	.
4bb-	.
=14	=14
(>8bb-L	.
8aaJ)	.
(>8cccL	.
8bb-J)	.
(>8dddL	.
8cccJ)	.
=15	=15
2ccc	.
4fff	.
=16	=16
(>4ggg	.
4eeen)	.
4eee	.
=17	=17
(>12dddL	.
12ccc	.
12bb-J)	.
4aa	.
4ggT	.
=18	=18
2ff	.
4r	.
=19	=19
4ff'	.
4ff'	.
4ff'	.
=20	=20
(>8ff#XL	.
8ggJ	.
8ffnL	.
8ee-J	.
8ddL	.
8ccJ)	.
=21	=21
4ee-'	.
4ee-'	.
4ee-'	.
=22	=22
!!linebreak:original
(>8eenL	.
8ffJ	.
8ee-XL	.
8ddJ	.
8ccL	.
8b-J)	.
=23	=23
(>8aL	.
8ccJ)	.
4ee-	.
4dd	.
=24	=24
4qqdd/	.
2cc	.
4r	.
=25	=25
2b-	.
4bb-	.
=26	=26
(>8bb-L	.
8aaJ)	.
(>8aaL	.
8ggJ)	.
(>8ggL	.
8ffJ)	.
=27	=27
(>2ff	.
4ff#X)	.
=28	=28
4gg	.
4r	.
(>12bb-L	.
12gg	.
12eenJ)	.
=29	=29
4dd	.
4r	.
(>12eenL	.
12cc	.
12aJ)	.
=30	=30
4b-	.
4r	.
(>12ddL	.
12b-	.
12gJ)	.
=31	=31
2f	.
4e-T	.
=32	=32
4d	.
4b-	.
(>12ddL	.
12b-	.
12gJ)	.
=33	=33
2f	.
4e-T	.
=34	=34
4d	.
4r	.
4r	.
=35:|!|:	=35:|!|:
!!linebreak:original
*k[b-e-a-]	*
*E-:	*
2.r	.
=36	=36
4rff	.
4rff	.
(>4bb-	p
=37	=37
4gg')	.
4ee-'	.
4b-'	.
=38	=38
4f'	.
4r	.
4r	.
=39	=39
4r	.
4r	.
(>4aa-	.
=40	=40
4ff')	.
4dd'	.
4a-'	.
=41	=41
4g'	.
4r	.
4r	.
=42	=42
4r	.
4r	.
(>4dd-X	.
=43	=43
4cc)	.
4aa-'	.
4r	.
=44	=44
4r	.
4r	.
(>4b-	.
=45	=45
4a-')	.
4ff'	.
4r	.
=46	=46
4r	.
4r	.
4b-'	.
=47	=47
!!linebreak:original
4B-'	.
4a-	.
4g	.
=48	=48
4f	.
4r	.
4r	.
=49:|!|:	=49:|!|:
2.r	.
=50	=50
4r	.
4r	.
(>4dd-X	.
=51	=51
4b-X)	.
4g	.
4r'	.
=52	=52
4r	.
4r	.
(>4cc	.
=53	=53
4a-')	.
4f'	.
4r	.
=54	=54
4r	.
4r	.
(>4b-	.
=55	=55
4cc')	.
4a-'	.
4r	.
=56	=56
4r	.
4r	.
(>4ff	.
=57	=57
4gg)	.
4ee-'	.
4r'	.
=58	=58
4r	.
4r	.
(>4bb-	.
=59	=59
4gg')	.
4ee-'	.
4b-'	.
=60	=60
4g	.
4r	.
4r	.
=61	=61
2.r	.
=62:|!	=62:|!
2.r	.
==	==
*-	*-
!!!RDF**kern: > = above
